modules/coreui-icons-free/icons/double-quote-sans-left.svg

<!-- Generated by IcoMoon.io -->
<svg version="1.1" xmlns="http://www.w3.org/2000/svg" width="24" height="24" viewBox="0 0 24 24">
<title>double-quote-sans-left</title>
<path d="M0.75 19.5h1.8l8.325-7.929v-10.821h-10.125zM2.25 2.25h7.125v8.679l-7.125 6.786z"></path>
<path d="M13.125 0.75v18.75h1.8l8.325-7.929v-10.821zM21.75 10.929l-7.125 6.786v-15.464h7.125z"></path>
</svg>

<svg xmlns="http://www.w3.org/2000/svg" width="24" height="24" viewBox="0 0 24 24"><path d="M.75 19.5h1.8l8.325-7.929V.75H.75zm1.5-17.25h7.125v8.679L2.25 17.715zM13.125.75V19.5h1.8l8.325-7.929V.75zm8.625 10.179l-7.125 6.786V2.251h7.125z"/></svg>
